src/img/icon-marker-updated.svg

<svg fill="none" height="20" viewBox="0 0 15 20" width="15" xmlns="http://www.w3.org/2000/svg"><path d="m7.5 0c-4.1418 0-7.5 3.3582-7.5 7.5 0 3.0238 1.05352 3.8684 6.73047 12.0977.3723.5378 1.16836.5378 1.54062 0 5.67421-8.2305 6.72891-9.0743 6.72891-12.0977 0-4.1418-3.3594-7.5-7.5-7.5zm0 10.5898c-1.72383 0-3.125-1.40152-3.125-3.12496 0-1.72343 1.40234-3.125 3.125-3.125s3.125 1.40157 3.125 3.125c0 1.72344-1.40234 3.12496-3.125 3.12496z" fill="#000"/></svg>

<svg width="15" height="20" viewBox="0 0 15 20" fill="none" xmlns="http://www.w3.org/2000/svg">
<path d="M7.5 0C3.3582 0 0 3.3582 0 7.5C0 10.5238 1.05352 11.3684 6.73047 19.5977C7.10277 20.1355 7.89883 20.1355 8.27109 19.5977C13.9453 11.3672 15 10.5234 15 7.5C15 3.3582 11.6406 0 7.5 0ZM7.5 10.5898C5.77617 10.5898 4.375 9.18828 4.375 7.46484C4.375 5.74141 5.77734 4.33984 7.5 4.33984C9.22266 4.33984 10.625 5.74141 10.625 7.46484C10.625 9.18828 9.22266 10.5898 7.5 10.5898Z" fill="black"/>
</svg>
